X:023
T:Cuckoo's Nest - Illmington
M:2/2
L:1/8
K:D
FGFE D2 d2 | FGFE D2 d2 | FGFE DCDE | F2 D2 D4 :| 
d2 d2 d2 ed | c2 A2 A3B | =c2 c2 c2 dc | B2 G2 G4 | 
FGFE D2 d2 | dBAF G2 FG | AGFE DCDE | F2 D2 D4 :| 

